**kern	**silbe
*ICvox	*
=1	=1
*G:	*
*M4/4	*
*clefG2	*
1r	.
=2	=2
1r	.
=3	=3
1r	.
=4	=4
1r	.
=5	=5
1r	.
=6	=6
1r	.
=7	=7
1r	.
=8	=8
1r	.
=9	=9
1r	.
=10	=10
1r	.
=11	=11
1r	.
=12	=12
1r	.
=13	=13
1r	.
=14	=14
1r	.
=15	=15
1r	.
=16	=16
1r	.
=17	=17
1r	.
=18	=18
1r	.
=19	=19
2r	.
4r	.
8r	.
8F#	Hey
=20	=20
8G	la-
8B	-dy
4r	.
4r	.
16F#	you
8F#	got
16G	the
=21	=21
16A	love
8.A	I
4F#	need
2r	.
=22	=22
4r	.
8G	May-
8B	-be
4r	.
8r	.
8B	more
=23	=23
16B	than
8B	e-
16B	-nough
8A	_
8r	.
4r	.
4d	Oh
=24	=24
16d	dar-
16B	_
8B	-lin'
16B	dar-
16G	_
16G	-lin'
[16G	dar-
16G]	_
8G	-lin'
16r	.
8r	.
16B	walk
16B	a
=25	=25
16B	while
8A	_
16A	with
16A	me
16B	_
8r	.
2r	.
=26	=26
4r	.
8r	.
4c	Oh
4B	_
8B	you've
=27	=27
8.B	got
8.A	so
16A	much
8.B	_
8r	.
4r	.
=28	=28
4r	.
16r	.
8.A	so
16A	much
8.B	_
4r	.
=29	=29
4r	.
8r	.
8.A	so
16A	much
8.B	_
8.r	.
=30	=30
*D:	*
1r	.
=31	=31
1r	.
=32	=32
1r	.
=33	=33
1r	.
=34	=34
16dd	Ma-
8dd	-ny
8b	have
8b	I
8.a	loved
8r	.
8r	.
16r	.
16d	and
=35	=35
16f#	ma-
8a	-ny
8.a	time
8f#	been
16a	bi-
8.b	-tten
8.r	.
16b	And
=36	=36
16dd	ma-
8dd	-ny
8.b	times
8b	I've
16a	gazed
16b	_
[4a	_
16a]	_
16d	a-
=37	=37
8.f#	-long
16a	the
8a	o-
8b	-pen
16b	road
[8.a	_
4a]	_
=38	=38
1r	.
=39	=39
1r	.
=40	=40
1r	.
=41	=41
1r	.
=42	=42
16dd	Ma-
8dd	-ny
8b	times
8b	I've
8b	lied
8.a	_
8r	.
16r	.
16d	and
=43	=43
16f#	ma-
8a	-ny
8a	times
8f#	I've
8a	list-
8b	-ened
16r	.
4r	.
=44	=44
16dd	Ma-
8dd	-ny
8.b	times
8b	I've
16a	won-
16b	_
4a	-dered
8d	how
=45	=45
8.f#	much
16a	there
512%85a	is
1024%171b	to
1024%171b	know
[4a	_
=46	=46
4a]	_
4r	.
2r	.
=47	=47
1r	.
=48	=48
1r	.
=49	=49
1r	.
=50	=50
16dd	Ma-
8dd	-ny
8.b	dreams
8b	come
4a	true
8r	.
16r	.
16d	and
=51	=51
8f#	some
8a	have
8a	sil-
16f#	-ver
8a	li-
8.b	-nings
4r	.
=52	=52
8dd	I
8dd	live
8b	for
8b	my
4a	dream
8r	.
16d	and
16d	a
=53	=53
8f#	po-
8a	-cket
8a	full
8b	of
8r	.
16b	gold
[8.a	_
8a]	_
=54	=54
1r	.
=55	=55
1r	.
=56	=56
1r	.
=57	=57
1r	.
=58	=58
1r	.
=59	=59
1r	.
=60	=60
*f#:	*
1r	.
=61	=61
1r	.
=62	=62
1r	.
=63	=63
1r	.
=64	=64
1r	.
=65	=65
1r	.
=66	=66
1r	.
=67	=67
1r	.
=68	=68
1r	.
=69	=69
1r	.
=70	=70
1r	.
=71	=71
*M3/4	*
2.r	.
=72	=72
2.r	.
=73	=73
2.r	.
=74	=74
*D:	*
*M2/4	*
2r	.
=75	=75
*M4/4	*
1r	.
=76	=76
1r	.
=77	=77
1r	.
=78	=78
1r	.
=79	=79
16dd	Me-
8dd	-llow
8b	is
8b	the
8.a	man
8r	.
8r	.
8d	who
=80	=80
8f#	knows
8a	what
8a	he's
8f#	been
16a	mis-
8.b	-sing
4r	.
=81	=81
16dd	Ma-
8dd	-ny
8b	ma-
8b	-ny
16a	men
16b	_
8a	_
16r	.
8r	.
8d	can't
=82	=82
8f#	see
16a	the
8a	o-
8.b	-pen
16b	road
8.a	_
4r	.
=83	=83
1r	.
=84	=84
1r	.
=85	=85
1r	.
=86	=86
1r	.
=87	=87
16dd	Ma-
8dd	-ny
8b	is
8b	a
8.a	word
8r	.
8r	.
16d	that
[16f#	on-
=88	=88
16f#]	_
8.a	-ly
8a	leaves
16f#	you
8a	guess-
8.b	-in'
4r	.
=89	=89
8dd	Guess-
16dd	-in'
8b	'bout
16b	a
4.a	thing
8r	.
8d	you
=90	=90
8f#	rea-
8a	-lly
8a	ought-
8b	-ta
8b	know
4.a	_
=91	=91
8b	oh
4a	_
8b	oh
[4a	_
16a]	_
8b	oh
[16a	_
=92	=92
4a_	_
16a]	_
8b	oh
4a	_
16r	.
8f#	Rea-
8a	-lly
=93	=93
8a	ought-
8b	-ta
8b	know
4.a	_
4r	.
=94	=94
2r	.
8r	.
8d	I
16f#	rea-
8.a	-lly
=95	=95
16a	ought-
8.b	-ta
16b	know
16dd	_
[4.a	_
4a]	_
=96	=96
2r	.
[2b	Ah
=97	=97
2b_	_
8b]	_
8dd	ooh
[4a	oh
=98	=98
8.a]	_
16f#	You
8f#	know
8e	I
8d	should
16d	You
8f#	know
8e	I
[16d	should
=99	=99
8d]	_
16d	You
8f#	know
8a	I
8a	should
8.f#	know
4r	.
=100	=100
1r	.
=101	=101
1r	.
=102	=102
1r	.
=103	=103
1r	.
=104	=104
1r	.
=105	=105
1r	.
=106	=106
1r	.
=107	=107
1r	.
=108	=108
1r	.
=109	=109
1r	.
=110	=110
1r	.
=111	=111
1r	.
*-	*-
!!!ENC: Nathaniel Condit-Schultz